!!!COM: Music21
!!!OTL: barndance_Marias-Prayer
!!!OMV: barndance_Marias-Prayer
**kern
*clefG2
*k[]
*M4/4
=1
8eL
8aJ
8aL
8bJ
8ccL
8bJ
8aL
8g#XJ
=
4g#X
8g#L
8aJ
2e
=
8eL
8aJ
8aL
8bJ
8ccL
8bJ
8ccL
8ddJ
=
2b
4b
8ccL
8ddJ
=
4ee
8eeL
8ffJ
4ee
8eeL
8ccJ
=
4dd
8ddL
8ccJ
4b
4e
!!linebreak:original
=
8eL
8aJ
8aL
8bJ
8ccL
8bJ
8aL
8g#XJ
=
2a
2a
=||
8ccL
8ddJ
2.ryy
=
4ee
8eeL
8ffJ
4ee
8eeL
8ccJ
=
4dd
8ddL
8ccJ
4b
4e
=
4ee
8eeL
8ffJ
4aa
8aaL
8gg#XJ
=
2ee
4ee
8ccL
8ddJ
!!linebreak:original
=
4ee
8eeL
8ccJ
4dd
8ddL
8bJ
=
4cc
8ddL
8ccJ
4b
4e
=
8eL
8aJ
8aL
8bJ
8ccL
8bJ
8aL
8g#XJ
=
2a
2a
=||
8ccL
16ddL
16ccJJ
8bL
16ccL
16bJJ
8aL
16bL
16aJJ
8g#XL
8eJ
=
8ccL
16ddL
16ccJJ
8bL
16ccL
16ddJJ
4ee
4ee
!!linebreak:original
=
8ccL
16ddL
16ccJJ
8bL
16ccL
16bJJ
8aL
16bL
16aJJ
8g#XL
8eJ
=
8eL
8aJ
8aL
8bJ
8ccL
8bJ
8aL
8g#XJ
=
2a
2a
=||
8eeL
16ffL
16eeJJ
8ddL
16eeL
16ddJJ
8ccL
16ddL
16ccJJ
8bL
8eJ
=
8eeL
16ffL
16eeJJ
8aaL
16aaL
16gg#XJJ
4ee
8eeL
16ccL
16ddJJ
!!linebreak:original
=
8eeL
16ffL
16eeJJ
8ddL
16eeL
16ddJJ
8ccL
16ddL
16ccJJ
8bL
8eJ
=
8eL
8aJ
8aL
8bJ
8ccL
8bJ
8aL
8g#XJ
=
2a
2a
=||
*-
